X:5103
T:The Goat's Toe
M:6/8
R:Jig
L:1/8
Q:180
C:Aidan Crossey
K:D
|:DFF EGG|FAB dcd|fed BdB|ABA GFE|
DFF EGG|FAB dcd|fed BdB|AFE D3:||
|:DFF EGG|FAA GBB|Acc Bce|d3 dc-c|
Bdd dcB|FAA AGF|E2A, A,B,C|D3 D3:||
